libs/ui/packages/crypto-icons/src/svg/REN.svg

<svg width="24" height="24" viewBox="0 0 24 24" fill="none">
<path d="M7.10551 7.36616L8.27851 6.69041L8.44501 6.96266L12.795 4.45016L12.4748 4.26041L12.1538 4.08341L12 3.98816L4.90051 8.08991V8.26691L6.93901 7.09316L7.10551 7.36616ZM7.10551 9.94916L10.518 7.98191L10.6718 8.25566L15.0345 5.74166L14.715 5.55191L14.3948 5.37491L14.2395 5.27966L4.90051 10.6602V10.8499L6.93901 9.67691L7.10551 9.94916ZM7.10551 11.2407L11.6325 8.62316L11.7863 8.89541L16.149 6.38291L15.8295 6.20441L15.507 6.01391L15.354 5.91941L4.90051 11.9532V12.1407L6.93901 10.9572L7.10551 11.2407ZM7.10551 12.5217L12.7815 9.24941L12.9375 9.52391L17.2635 7.02266L16.9418 6.84341L16.6223 6.65591L16.4685 6.57116L4.90051 13.2454V13.4224L6.93901 12.2494L7.10551 12.5217ZM7.10551 13.8132L13.896 9.89066L14.0513 10.1757L18.378 7.67516L18.0555 7.48466L17.7495 7.30616L17.583 7.21241L4.90051 14.5369V14.7139L6.93901 13.5409L7.10551 13.8132ZM18.8618 7.94741L18.6968 7.85216L4.90051 15.8284V16.0054L6.93901 14.8324L7.10551 15.1047L13.896 11.1822L14.0513 11.4552L19.0988 8.55191V8.08991L18.8618 7.94741ZM5.77801 16.7892L6.91576 16.1367L7.08151 16.4097L13.8615 12.4872L14.0265 12.7699L19.0995 9.83066V8.91866L5.62426 16.6947L5.77801 16.7892ZM13.8615 13.7787L14.0265 14.0637L19.0995 11.1237V10.2109L6.73801 17.3457L6.89101 17.4409L8.05351 16.7652L8.21776 17.0374L13.8615 13.7787ZM8.00626 18.0807L9.17926 17.4057L9.33226 17.6907L13.8623 15.0702L14.0258 15.3424L19.0995 12.4159V11.4919L7.85101 17.9862L8.00626 18.0807ZM9.13201 18.7204L10.2938 18.0574L10.4468 18.3297L13.8615 16.3617L14.0265 16.6339L19.0995 13.7074V12.7827L8.96551 18.6379L9.13201 18.7204ZM10.08 19.2777L10.2458 19.3729L11.4083 18.6964L11.5613 18.9814L13.8615 17.6539L14.0265 17.9277L19.0995 14.9989V14.0757L10.08 19.2777ZM11.3603 20.0119L12.5228 19.3489L12.687 19.6212L13.8615 18.9342L14.0265 19.2192L19.0995 16.2904V15.3664L11.205 19.9302L11.3603 20.0119ZM13.92 5.08991L13.6005 4.91291L13.2803 4.72241L13.1145 4.62791L4.90051 9.38066V9.55766L6.93901 8.38466L7.10551 8.65691L9.40351 7.33091L9.55951 7.60316L13.92 5.08991Z" fill="#080817"/>
</svg>

<svg width="24" height="24" viewBox="0 0 24 24" fill="none"><path fill="#080817" d="m7.106 7.366 1.173-.676.166.273 4.35-2.513-.32-.19-.321-.177L12 3.988 4.9 8.09v.177l2.04-1.174zm0 2.583 3.412-1.967.154.274 4.362-2.514-.319-.19-.32-.177-.155-.095-9.34 5.38v.19l2.04-1.173zm0 1.292 4.527-2.618.153.272 4.363-2.512-.32-.179-.322-.19-.153-.095-10.453 6.034v.188l2.038-1.184zm0 1.28 5.676-3.272.155.275 4.327-2.501-.322-.18-.32-.187-.154-.085-11.567 6.674v.177l2.038-1.173zm0 1.292 6.79-3.922.155.285 4.327-2.5-.323-.191-.305-.179-.167-.094-12.682 7.325v.177l2.038-1.173zm11.756-5.866-.165-.095L4.9 15.828v.177l2.038-1.173.167.273 6.79-3.923.155.273 5.05-2.903V8.09zM5.778 16.79l1.138-.652.166.273 6.78-3.923.165.283L19.1 9.83v-.91L5.623 16.695zm8.084-3.01.165.285 5.073-2.94v-.913L6.737 17.346l.153.095 1.163-.676.164.272zm-5.856 4.3 1.173-.675.153.285 4.53-2.62.164.271 5.073-2.926v-.924L7.852 17.986zm1.126.64 1.162-.664.153.273 3.415-1.968.165.272 5.073-2.927v-.924L8.965 18.638zm.948.557.166.095 1.162-.677.153.285 2.3-1.327.165.274 5.073-2.93v-.922zm1.28.734 1.163-.663.164.272 1.175-.687.165.285L19.1 16.29v-.924l-7.895 4.564zM13.92 5.09l-.32-.177-.32-.19-.165-.095L4.9 9.38v.177l2.038-1.173.167.272L9.404 7.33l.156.272z"/></svg>
